packages/icons/svg/Media_Download_App_48px.svg

<svg xmlns="http://www.w3.org/2000/svg" viewBox="0 0 48 48"><path d="M22.94 31.56a1.5 1.5 0 002.12 0l6.5-6.5a1.5 1.5 0 00-2.12-2.12l-3.94 3.94V5.5a1.5 1.5 0 00-3 0v21.38l-3.94-3.94a1.5 1.5 0 00-2.12 2.12z"/><path d="M39 7h-4a1.5 1.5 0 000 3h3v28H10V10h3a1.5 1.5 0 000-3H9a2 2 0 00-2 2v30a2 2 0 002 2h30a2 2 0 002-2V9a2 2 0 00-2-2z"/></svg>

<svg xmlns="http://www.w3.org/2000/svg" viewBox="0 0 48 48"><defs></defs><g id="Icon"><path  d="M22.94,31.56a1.5,1.5,0,0,0,2.12,0l6.5-6.5a1.5,1.5,0,0,0-2.12-2.12L25.5,26.88V5.5a1.5,1.5,0,0,0-3,0V26.88l-3.94-3.94a1.5,1.5,0,0,0-2.12,2.12Z"/><path  d="M39,7H35a1.5,1.5,0,0,0,0,3h3V38H10V10h3a1.5,1.5,0,0,0,0-3H9A2,2,0,0,0,7,9V39a2,2,0,0,0,2,2H39a2,2,0,0,0,2-2V9A2,2,0,0,0,39,7Z"/></g></svg>
